X:7
%%topspace -50
%%musicspace -10
T:Soldier's Joy
M:4/4
L:1/8
K:D
FG | "D"AFDF AFDF | A2 d2 d2 cB | AFDF AFDF | "A7"G2 E2 E2 FG | 
"D"AFDF AFDF | A2 d2 d2 (3efg | fafd "A7"egec | "D" d2 d2 d2 :|]
[|: de | "D"f2 fd fagf | "A7"e2 ec egfe | "D"f2 fd fagf | "A7"edcB A2 de | 
"D"f2 fd fagf | "A7"e2 ec egfe | "D"fafd "A7"egec | "D" d2 d2 d2 :|]

